packages/components/bolt-icons/src/svgs/product/product/platform/robo-auto.svg

<svg id="baea1334-e77b-447e-a7e3-acc0c198eb3a" data-name="Layer 1" xmlns="http://www.w3.org/2000/svg" viewBox="0 0 32.1 32.2"><title>robo-auto</title><path id="bf6bae7d-afc6-4b28-97a4-da54927c0cb9" data-name="Page-1" d="M20,15h2V13H20Zm0-4H18v6h6V11H20ZM10,15h2V13H10Zm4,2V11H8v6h6Zm-3,6H21V21H11Zm17.1,0a3.08,3.08,0,0,1-3,3H7a2.88,2.88,0,0,1-2.1-.9A2.88,2.88,0,0,1,4,23V9a2.88,2.88,0,0,1,.9-2.1A2.88,2.88,0,0,1,7,6H25.1a2.88,2.88,0,0,1,2.1.9A2.88,2.88,0,0,1,28.1,9ZM12,30.2h8v-2H12ZM31.7,10.8a.91.91,0,0,0-.7-.3H30V9a4.54,4.54,0,0,0-1.5-3.5A4.85,4.85,0,0,0,25,4H17V2h1a1.08,1.08,0,0,0,.7-.3A.91.91,0,0,0,19,1a.91.91,0,0,0-.3-.7A1.08,1.08,0,0,0,18,0H13.9a1.08,1.08,0,0,0-.7.3.91.91,0,0,0-.3.7.91.91,0,0,0,.3.7,1.33,1.33,0,0,0,.7.3h1V4H7A4.54,4.54,0,0,0,3.5,5.5,4.54,4.54,0,0,0,2,9v1H1c-.7,0-1,.3-1,1v8c0,.7.3,1,1,1H2v3a4.54,4.54,0,0,0,1.5,3.5A4.85,4.85,0,0,0,7,28h3v4.2H22V28h3.1a4.54,4.54,0,0,0,3.5-1.5A4.85,4.85,0,0,0,30.1,23V20h1a1.08,1.08,0,0,0,.7-.3.91.91,0,0,0,.3-.7V11.4a2.09,2.09,0,0,0-.4-.6Z" fill="#1f2555" fill-rule="evenodd"/></svg>

<?xml version="1.0" encoding="utf-8"?>
<!-- Generator: Adobe Illustrator 24.0.3, SVG Export Plug-In . SVG Version: 6.00 Build 0)  -->
<svg version="1.1" id="baea1334-e77b-447e-a7e3-acc0c198eb3a"
	 xmlns="http://www.w3.org/2000/svg" xmlns:xlink="http://www.w3.org/1999/xlink" x="0px" y="0px" viewBox="0 0 32.1 32.2"
	 enable-background="new 0 0 32.1 32.2" xml:space="preserve">
<path id="bf6bae7d-afc6-4b28-97a4-da54927c0cb9" fill-rule="evenodd" clip-rule="evenodd" d="M20,15h2v-2h-2V15z M20,11h-2v6h6v-6
	H20z M10,15h2v-2h-2V15z M14,17v-6H8v6H14z M11,23h10v-2H11V23z M28.1,23c0,1.6-1.4,3-3,3H7c-0.8,0-1.6-0.3-2.1-0.9
	C4.3,24.6,4,23.8,4,23V9c0-0.8,0.3-1.6,0.9-2.1C5.4,6.3,6.2,6,7,6h18.1c0.8,0,1.6,0.3,2.1,0.9c0.6,0.5,0.9,1.3,0.9,2.1V23z M12,30.2
	h8v-2h-8V30.2z M31.7,10.8c-0.2-0.2-0.4-0.3-0.7-0.3h-1V9c0-1.3-0.5-2.6-1.5-3.5C27.6,4.5,26.3,4,25,4h-8V2h1c0.3,0,0.5-0.1,0.7-0.3
	C18.9,1.5,19,1.3,19,1c0-0.3-0.1-0.5-0.3-0.7C18.5,0.1,18.3,0,18,0h-4.1c-0.3,0-0.5,0.1-0.7,0.3C13,0.5,12.9,0.7,12.9,1
	c0,0.3,0.1,0.5,0.3,0.7C13.4,1.9,13.6,2,13.9,2h1v2H7C5.7,4,4.4,4.5,3.5,5.5C2.5,6.4,2,7.7,2,9v1H1c-0.7,0-1,0.3-1,1v8
	c0,0.7,0.3,1,1,1h1v3c0,1.3,0.5,2.6,1.5,3.5C4.4,27.5,5.7,28,7,28h3v4.2h12V28h3.1c1.3,0,2.6-0.5,3.5-1.5c1-0.9,1.5-2.2,1.5-3.5v-3
	h1c0.3,0,0.5-0.1,0.7-0.3c0.2-0.2,0.3-0.4,0.3-0.7v-7.6C32,11.2,31.9,11,31.7,10.8z"/>
</svg>
